!!!COM: Power, Leonel
!!!OTL: Anima mea
!!!ONB: three part version
!!!ONM: No. 18
!!!YOR: from: "Complete Works" edited by Charles Hamm, Vol. 1, Motets, pp.36-38
!!!YOO: American Institute of Musicology
!!!YOY: 1969
**kern	**kern	**kern
*ICvox	*ICvox	*ICvox
! tenor	! contratenor	! discantus
*M3/4	*M3/4	*M3/4
*>A1	*>A1	*>A1
!! Section 'A1'; (O) mensuration.
=1	=1	=1
[2.F	2f	2.r
.	8d	.
.	8c	.
=2	=2	=2
2.F_	8c	4.f
.	16B-	.
.	16c	.
.	8d	.
.	8c	8f
.	4A	4f
=3	=3	=3
2.F_	2c	8f
.	.	8g
.	.	4.a
.	4d	.
.	.	8f
=4	=4	=4
2.F]	4d	8a
.	.	8b
.	2c	4.cc
.	.	8a
=5	=5	=5
[2.c	2F	2a
.	[4c	4g
=6	=6	=6
4c]	4c]	4e
2Bn	2G	4.d
.	.	8c
=7	=7	=7
2.c	8g	2c
.	16f	.
.	16g	.
.	4.a	.
.	.	4r
.	8g	.
=8	=8	=8
2r	4e	2cc
.	4a	.
4c	8g	4cc
.	8e	.
=9	=9	=9
2d	2d	4a
.	.	2dd
[4f	4d	.
=10	=10	=10
4f]	4A	4.cc
2e	2c	.
.	.	8b
.	.	8g
.	.	8a
=11	=11	=11
2e	4G	8b
.	.	8cc
.	4r	8dd
.	.	16cc
.	.	16dd
4e	4g	8ee
.	.	8cc
=12	=12	=12
4f	4.a	4.cc
2d	.	.
.	8g	16b
.	.	16cc
.	4f	8b
.	.	8a
=13	=13	=13
[2.c	2g	2.cc
.	4a	.
=14	=14	=14
2.c]	4a	2r
.	4g	.
.	4e	4g
=15	=15	=15
2r	4f	4a
.	2g	2b
4G	.	.
=16	=16	=16
2A	2r	4.cc
.	.	8a
[4c	4c	8b
.	.	8cc
=17	=17	=17
4c]	4c	4a
2B-	2G	8g
.	.	8.g
.	.	16f
.	.	16e
.	.	16d
=18	=18	=18
2c	4g	4c
.	4e	4.g
4B-	4d	.
.	.	8f
=19	=19	=19
4A	2c	2f
2G	.	.
.	4Bn	8e
.	.	8d
=20	=20	=20
[2.F	4c	2.f
.	4.d	.
.	8c	.
=21	=21	=21
*>A2	*>A2	*>A2
!! Section 'A2'; (O) mensuration.
2.F]	4A	2.r
.	8c	.
.	8B-	.
.	8A	.
.	8G	.
=22	=22	=22
2.f	2.F	4a
.	.	4a
.	.	4a
=23	=23	=23
2e	2c	4g
.	.	4g
4f	4F	4a
=24	=24	=24
2d	2G	8b
.	.	8cc
.	.	2dd
4Bn	4G	.
=25	=25	=25
4c	2r	4.cc
2d	.	.
.	.	16b
.	.	16cc
.	4f	8b
.	.	8a
=26	=26	=26
[2.c	2g	4cc
.	.	4r
.	4e	4g
=27	=27	=27
2.c_	4e	4.cc
.	4c	.
.	.	8dd
.	4r	8cc
.	.	8a
=28	=28	=28
2.c]	4e	4g
.	8f	8a
.	8e	4cc
.	8c	.
.	8d	8b
=29	=29	=29
2.c	8e	4g
.	8f	.
.	4.g	4r
.	.	4e
.	8e	.
=30	=30	=30
2r	4c	4.g
.	4G	.
.	.	8f
4G	4g	8e
.	.	8d
=31	=31	=31
[2.c	4g	4c
.	8a	4r
.	8g	.
.	4e	4g
=32	=32	=32
2.c]	4e	8a
.	.	4cc
.	4c	.
.	.	8b
.	4r	8g
.	.	8a
=33	=33	=33
2d	2G	8b
.	.	8cc
.	.	4.dd
[4G	[4d	.
.	.	8cc
=34	=34	=34
4G]	4d]	4b-
2c	4c	4.a
.	4F	.
.	.	8g
=35	=35	=35
4B-	4G	2g
2A	2c	.
.	.	4f#x
=36	=36	=36
2.G	2d	4g
.	.	4r
.	4e	4g
=37	=37	=37
2r	4e	4.g
.	2g	.
.	.	8e
4c	.	4e
=38	=38	=38
4c	4e	4.g
2B-	4d	.
.	.	8f
.	[4g	4d
=39	=39	=39
2.c	4g]	4c
.	4a	2r
.	8e	.
.	[8f	.
=40	=40	=40
2.F	8f]	8f
.	8d	8g
.	2c	4.a
.	.	8f
=41	=41	=41
2c	2F	8a
.	.	8b
.	.	4cc
[4d	4r	8b
.	.	8a
=42	=42	=42
4d]	4.f	4.a
2B-	.	.
.	8d	8f
.	4d	4g
=43	=43	=43
2.A	4e	2.a
.	4r	.
.	[4a	.
=44	=44	=44
4.c	8a]	2.r
.	8g	.
.	8e	.
8A	8f	.
8B-	8d	.
8c	[8c	.
=45	=45	=45
*>A3	*>A3	*>A3
!! Section 'A3'; (O) mensuration.
4A	8c]	2.r
.	4f	.
4F	.	.
.	8d	.
4G	4e	.
=46	=46	=46
2F	4f	4.cc
.	8c	.
.	4d	8a
4r	.	8b-x
.	[8c	8cc
=47	=47	=47
2F	8c]	4a
.	4f	.
.	.	8f
.	8.d	4g
4E	.	.
.	16c	.
.	[8c	8a
=48	=48	=48
4F	8c]	8f
.	8A	8c
2G	4G	8f
.	.	4e
.	4r	.
.	.	8d
=49	=49	=49
2F	2c	8f
.	.	16e
.	.	16f
.	.	8g
.	.	8f
4r	4f	4d
=50	=50	=50
2.c	8g	4c
.	4a	.
.	.	4r
.	8g	.
.	4e	4cc
=51	=51	=51
2.F	4.f	4dd
.	.	4cc
.	8c	.
.	4f	4a
=52	=52	=52
2c	4e	8g
.	.	4cc
.	8c	.
.	8d	8b
4F	8c	8.a
.	[8A	.
.	.	16g
=53	=53	=53
4A	8A]	8fn
.	8c	16e
.	.	16f#
2G	8d	8.g
.	8B-	.
.	.	16e
.	4B-	4e
=54	=54	=54
2.F	2.c	2.f
!! Hamm edition incorrect on length of final long.  Out one bar from here.
!! Two-voice texture
!! End of first section.
*M2/4	*M2/4	*M2/4
=56	=56	=56
*>B1	*>B1	*>B1
!! Section 'B1'; (C) mensuration.
[2f	2r	[2f
=57	=57	=57
4f]	2r	2f]
4d	.	.
=58	=58	=58
4f	2r	4a
4g	.	4b
=59	=59	=59
2e	2r	4cc
.	.	4b
=60	=60	=60
4d	2r	4.dd
[4f#	.	.
.	.	[8cc
=61	=61	=61
4f#]	2r	8cc]
.	.	8b
4g	.	4g
=62	=62	=62
2a	2r	4r
.	.	4f
=63	=63	=63
4.g	2r	4g
.	.	4b
8e	.	.
=64	=64	=64
4f	2r	4.a
[4g	.	.
.	.	8g
=65	=65	=65
4g]	2r	4b
4d	.	8cc
.	.	[8dd
=66	=66	=66
4f	2r	8dd]
.	.	8b
4e	.	8g
.	.	8a
=67	=67	=67
2d	2r	8cc
.	.	4b
.	.	8a
=68	=68	=68
2c	2r	2cc
=69	=69	=69
2r	2r	2r
=70	=70	=70
[2f	2r	2a
=71	=71	=71
2f]	2r	4a
.	.	[4f
=72	=72	=72
[2d	2r	4f]
.	.	[4b-
=73	=73	=73
4d]	2r	4b-]
4c	.	[4a
=74	=74	=74
2B-	2r	8a]
.	.	8f
.	.	4g
=75	=75	=75
4A	2r	2a
[4c	.	.
=76	=76	=76
4c]	2r	4r
[4F	.	4cc
=77	=77	=77
4F]	2r	4dd
4c	.	4cc
=78	=78	=78
4d	2r	2a
[4f	.	.
=79	=79	=79
4f]	2r	4f
4e	.	[4g
=80	=80	=80
2c	2r	8g]
.	.	8e
.	.	[4g
=81	=81	=81
4r	2r	8g]
.	.	8f
4B-	.	4d
=82	=82	=82
4c	2r	4c
4A	.	4r
=83	=83	=83
4F	2r	4f
4A	.	8e
.	.	8f
=84	=84	=84
2G	2r	8g
.	.	8e
.	.	4e
=85	=85	=85
2F	2r	2f
=86	=86	=86
*>B2	*>B2	*>B2
!! Section 'B2'; (C) mensuration.
2r	2r	2r
=87	=87	=87
[2c	2r	4.a
.	.	8b
=88	=88	=88
4c]	2r	8cc
.	.	8b
[4e	.	[4g
=89	=89	=89
4e]	2r	4g]
4f	.	4a
=90	=90	=90
4.g	2r	4.b
8f	.	8a
=91	=91	=91
4e	2r	2g
[4c	.	.
=92	=92	=92
4c]	2r	4a
4e	.	[4cc
=93	=93	=93
2d	2r	8cc]
.	.	16b
.	.	16cc
.	.	8b
.	.	8a
=94	=94	=94
[2c	2r	2cc
=95	=95	=95
2c]	2r	4r
.	.	[4ee
=96	=96	=96
2g	2r	4ee]
.	.	[4dd
=97	=97	=97
4f	2r	8dd]
.	.	8cc
[4e	.	8cc
.	.	8b
=98	=98	=98
8e]	2r	4cc
8c	.	.
[4c	.	4a
=99	=99	=99
8c]	2r	2g
8B-	.	.
4c	.	.
=100	=100	=100
4A	2r	4cc
[4G	.	4dd
=101	=101	=101
4G]	2r	8b
.	.	8g
4B-	.	4g
=102	=102	=102
4.c	2r	8cc
.	.	8b
.	.	8a
8G	.	8g
=103	=103	=103
4.B-	2r	4g
.	.	8d
8c	.	8g
=104	=104	=104
2A	2r	8.a
.	.	16f#x
.	.	4f#x
=105	=105	=105
[2G	2r	[2g
=106	=106	=106
2G]	2r	2g]
!! Three-voice texture
*M3/4	*M3/4	*M3/4
=107	=107	=107
*>C	*>C	*>C
!! Section 'C'; (O) mensuration.
2c	2.r	2g
[4G	.	4e
=108	=108	=108
4G]	2d	4.g
2B-	.	.
.	.	8f
.	[4g	4d
=109	=109	=109
4.c	4g]	4c
.	8e	4r
8A	8c	.
8B-	8d	4g
8A	8e	.
=110	=110	=110
2.F	4f	4a
.	2a	4.cc
.	.	8a
=111	=111	=111
2.G	4.g	8b
.	.	8cc
.	.	4.dd
.	8f	.
.	4d	.
.	.	8cc
=112	=112	=112
4c	4c	4a
4B-	4d	8g
.	.	8b-
4F	8c	8a
.	[8A	8f
=113	=113	=113
4A	8A]	8f
.	8c	16e
.	.	16f
2G	2Bn	8g
.	.	8e
.	.	8e
.	.	8d
=114	=114	=114
2F	4c	4f
.	2F	4r
[4c	.	4a
=115	=115	=115
4c]	4A	4cc
2d	2G	8.b
.	.	16cc
.	.	8dd
.	.	8b
=116	=116	=116
2.c	4r	4cc
.	4c	4r
.	8A	4cc
.	[8F	.
=117	=117	=117
4.f	8F]	4dd
.	8B-	.
.	4A	8cc
8c	.	8a
4d	4G	8b
.	.	8cc
=118	=118	=118
4.c	2r	4a
.	.	8g
8B-	.	8.g
4B-	4g	.
.	.	16f
.	.	16e
.	.	16d
=119	=119	=119
2c	4g	8c
.	.	8d
.	8e	8e
.	8c	8f
4B-	4d	8g
.	.	8a
=120	=120	=120
4A	8c	2f
.	16B-	.
.	16c	.
2G	4d	.
.	4B-	8e
.	.	8d
=121	=121	=121
[2.F	[2.c	[2.f
=122	=122	=122
2.F]	2.c]	2.f]
==	==	==
*-	*-	*-
!!!ENC: Mark Laxton
!!!EDD: Mark Laxton
!!!YEC: Mark Laxton, 1987
!!!EMD: Reference records added by D. Huron, 2001
!!!EEV: 1.1
